_includes/icons/color-umbrella.svg

<svg fill="#666" height="50" viewBox="0 0 48 48" width="50" xmlns="http://www.w3.org/2000/svg"><path d="m24.171875 42.828125c-.753906-.753906-1.171875-1.757812-1.171875-2.824219v-36.003906h2v36.003906c0 1.101563.898438 1.996094 2 2 1.101563 0 2-.902343 2-2h2c0 2.203125-1.792969 3.996094-4 3.996094-1.066406 0-2.070312-.414062-2.828125-1.171875z" fill="#b0bec5"/><path d="m43 27c0-10.492187-8.507812-19-19-19-10.492187 0-19 8.507813-19 19 0 0 2.835938-2.714844 6.335938-2.714844 3.496093 0 5.664062 2.714844 5.664062 2.714844s3.503906-2.714844 7-2.714844 7 2.714844 7 2.714844 2.167969-2.714844 5.664063-2.714844c3.5 0 6.335937 2.714844 6.335937 2.714844z" fill="#2196f3"/><path d="m24 8v16.285156c3.496094 0 7 2.714844 7 2.714844s2.167969-2.714844 5.664063-2.714844c3.5 0 6.335937 2.714844 6.335937 2.714844 0-10.492187-8.507812-19-19-19z" fill="#0d47a1"/><path d="m24 8s-7 4.523438-7 19c0 0 3.503906-2.714844 7-2.714844s7 2.714844 7 2.714844c0-13.570312-7-19-7-19z" fill="#1565c0"/></svg>

<svg xmlns="http://www.w3.org/2000/svg" viewBox="0 0 48 48" width="50" height="50" fill="#666"><path d="M 24.171875 42.828125 C 23.417969 42.074219 23 41.070313 23 40.003906 L 23 4 L 25 4 L 25 40.003906 C 25 41.105469 25.898438 42 27 42.003906 C 28.101563 42.003906 29 41.101563 29 40.003906 L 31 40.003906 C 31 42.207031 29.207031 44 27 44 C 25.933594 44 24.929688 43.585938 24.171875 42.828125 Z" fill="#b0bec5"/><path d="M 43 27 C 43 16.507813 34.492188 8 24 8 C 13.507813 8 5 16.507813 5 27 C 5 27 7.835938 24.285156 11.335938 24.285156 C 14.832031 24.285156 17 27 17 27 C 17 27 20.503906 24.285156 24 24.285156 C 27.496094 24.285156 31 27 31 27 C 31 27 33.167969 24.285156 36.664063 24.285156 C 40.164063 24.285156 43 27 43 27 Z" fill="#2196f3"/><path d="M 24 8 L 24 24.285156 C 27.496094 24.285156 31 27 31 27 C 31 27 33.167969 24.285156 36.664063 24.285156 C 40.164063 24.285156 43 27 43 27 C 43 16.507813 34.492188 8 24 8 Z" fill="#0d47a1"/><path d="M 24 8 C 24 8 17 12.523438 17 27 C 17 27 20.503906 24.285156 24 24.285156 C 27.496094 24.285156 31 27 31 27 C 31 13.429688 24 8 24 8 Z" fill="#1565c0"/></svg>
